X:5067
T:The Last Bus to Glen
M:4/4
R:Reel
L:1/8
Q:180
C:Aidan Crossey
K:G
|:BG (3GGG (3BAG d2|cA (3AAB (3cBA (3edc|BG (3GGG (3BAG d2|(3cBA (3edc (3dBG A2:||
|:Bdef (3gfe (3dBG|Bd (3edB (3ABA (3DEF|Bdef (3gfe (3dBG|(3ABA (3DEF G2 G2:||
